src/24/actions/zoom-out-y.svg

<svg xmlns="http://www.w3.org/2000/svg" viewBox="0 0 24 24">
  <defs id="defs3051">
    <style type="text/css" id="current-color-scheme">
      .ColorScheme-Text {
        color:#5d656b;
      }
      </style>
  </defs>
 <path style="fill:currentColor;fill-opacity:1;stroke:none" 
     d="M 4 4 L 4 6 L 5 6 L 5 5 L 6 5 L 6 4 L 4 4 z M 8 4 L 8 5 L 9 5 L 9 6 L 10 6 L 10 4 L 8 4 z M 13 4 L 13 5 L 19 5 L 19 11 L 20 11 L 20 5 L 20 4 L 13 4 z M 4 8 L 4 10 L 6 10 L 6 9 L 5 9 L 5 8 L 4 8 z M 9 8 L 9 9 L 8 9 L 8 10 L 10 10 L 10 8 L 9 8 z M 4 13 L 4 20 L 5 20 L 11 20 L 11 19 L 5 19 L 5 13 L 4 13 z M 15.998047 13.429688 L 15.998047 18.085938 L 14.376953 16.464844 L 13.669922 17.171875 L 15.791016 19.292969 L 16.498047 20 L 19.328125 17.171875 L 18.621094 16.464844 L 16.998047 18.085938 L 16.998047 13.429688 L 15.998047 13.429688 z "
     class="ColorScheme-Text"
     />
</svg>

<svg xmlns="http://www.w3.org/2000/svg" viewBox="0 0 24 24"><path d="M4 4v2h1V5h1V4H4zm4 0v1h1v1h1V4H8zm5 0v1h6v6h1V4h-7zM4 8v2h2V9H5V8H4zm5 0v1H8v1h2V8H9zm-5 5v7h7v-1H5v-6H4zm11.998.43v4.656l-1.621-1.621-.707.707 2.121 2.121.707.707 2.83-2.828-.707-.707-1.623 1.62V13.43h-1z" fill="currentColor" color="#5d656b"/></svg>
